img/footer-insta.svg

<svg width="18" height="18" viewBox="0 0 18 18" fill="none" xmlns="http://www.w3.org/2000/svg">
<path d="M12.87 0H5.13C2.31001 0 0 2.31001 0 5.13V12.87C0 15.69 2.31001 18 5.13 18H12.87C15.69 18 18 15.69 18 12.87V5.13C18 2.31001 15.69 0 12.87 0ZM17.4 12.87C17.4 15.36 15.36 17.4 12.87 17.4H5.13C2.63999 17.4 0.600012 15.36 0.600012 12.87V5.13C0.600012 2.63999 2.64002 0.600012 5.13 0.600012H12.87C15.36 0.600012 17.4 2.64002 17.4 5.13V12.87Z" fill="white"/>
<path d="M9.00006 4.2002C6.36007 4.2002 4.20007 6.36019 4.20007 9.00018C4.20007 11.6402 6.36007 13.8002 9.00006 13.8002C11.64 13.8002 13.8 11.6402 13.8 9.00018C13.8 6.36019 11.64 4.2002 9.00006 4.2002ZM9.00006 13.2002C6.69005 13.2002 4.80005 11.3102 4.80005 9.00018C4.80005 6.69017 6.69005 4.80017 9.00006 4.80017C11.3101 4.80017 13.2001 6.69017 13.2001 9.00018C13.2001 11.3102 11.3101 13.2002 9.00006 13.2002Z" fill="white"/>
<path d="M13.8 3.2998C13.29 3.2998 12.9 3.68979 12.9 4.1998C12.9 4.70981 13.29 5.0998 13.8 5.0998C14.31 5.0998 14.7 4.70981 14.7 4.1998C14.7 3.68979 14.31 3.2998 13.8 3.2998Z" fill="white"/>
</svg>

<svg width="18" height="18" fill="none" xmlns="http://www.w3.org/2000/svg"><path d="M12.87 0H5.13C2.31 0 0 2.31 0 5.13v7.74C0 15.69 2.31 18 5.13 18h7.74c2.82 0 5.13-2.31 5.13-5.13V5.13C18 2.31 15.69 0 12.87 0zm4.53 12.87c0 2.49-2.04 4.53-4.53 4.53H5.13C2.64 17.4.6 15.36.6 12.87V5.13C.6 2.64 2.64.6 5.13.6h7.74c2.49 0 4.53 2.04 4.53 4.53v7.74z" fill="#fff"/><path d="M9 4.2C6.36 4.2 4.2 6.36 4.2 9c0 2.64 2.16 4.8 4.8 4.8 2.64 0 4.8-2.16 4.8-4.8 0-2.64-2.16-4.8-4.8-4.8zm0 9c-2.31 0-4.2-1.89-4.2-4.2 0-2.31 1.89-4.2 4.2-4.2 2.31 0 4.2 1.89 4.2 4.2 0 2.31-1.89 4.2-4.2 4.2zm4.8-9.9c-.51 0-.9.39-.9.9s.39.9.9.9.9-.39.9-.9-.39-.9-.9-.9z" fill="#fff"/></svg>
